dist/images/svg-icons/layout-grid3-alt.svg

<?xml version="1.0" encoding="utf-8"?>
<!-- Generated by IcoMoon.io -->
<!DOCTYPE svg PUBLIC "-//W3C//DTD SVG 1.1//EN" "http://www.w3.org/Graphics/SVG/1.1/DTD/svg11.dtd">
<svg version="1.1" xmlns="http://www.w3.org/2000/svg" xmlns:xlink="http://www.w3.org/1999/xlink" width="17" height="17" viewBox="0 0 17 17">
<g>
</g>
	<path d="M0 0h5v5h-5v-5zM6 5h5v-5h-5v5zM12 0v5h5v-5h-5zM0 11h5v-5h-5v5zM6 11h5v-5h-5v5zM12 11h5v-5h-5v5zM0 17h5v-5h-5v5zM6 17h5v-5h-5v5zM12 17h5v-5h-5v5z" fill="#000000" />
</svg>

<svg xmlns="http://www.w3.org/2000/svg" width="17" height="17"><path d="M0 0h5v5H0V0zm6 5h5V0H6v5zm6-5v5h5V0h-5zM0 11h5V6H0v5zm6 0h5V6H6v5zm6 0h5V6h-5v5zM0 17h5v-5H0v5zm6 0h5v-5H6v5zm6 0h5v-5h-5v5z"/></svg>
